X: 11
T: The Mason's Apron
R: reel
M: 4/4
L: 1/8
K: Gmaj
ge |: dBAD ~G3E | DEGA BG ~G2 | Az BG AGEG | ~G2Bd edge|
dBAD ~G3E | DEGA BG~G2 | c3d ez ge |1 dBAB ~g3e :|2 dBAB GEDE ||
~G2dG eGdG | ~G2dG GEDE | ~A3e gz ed | cdeg gedB |
~G2dG eGdG | ~G2dG GEDE | ~c3d ez ge |1 dBAB GEDE :|2 dBAB ~g3e ||


Tune 74	Setting 12549

